X:051
T:Fair Wind (reel) 
B:CRE3.081 (CÃÂÃÂÃÂÃÂ³ir Ghaoithe)
F:file ID: cre.3/051fair_w
R:reel
Q:180
M:C
L:1/8
K:A
F|A2AF A3B|cBAB cB~B2|AFF2 A3B|cBAF FEEF|
A3F A3B|cBAB cBB2|cee2 fcec|(3dcB AF FEE:|
B|ceec A3B|ceec (3dcB B2|ceec A3B|cBAF FEEB|
ceec A3B|ceec (3dcB B2|cee2 fcec|(3dcB AF FEE:|

%%%

